bernoullicharts/1_5_x__mean.svg

<?xml version="1.0" encoding="utf-8" standalone="no"?>
<!DOCTYPE svg PUBLIC "-//W3C//DTD SVG 1.1//EN"
  "http://www.w3.org/Graphics/SVG/1.1/DTD/svg11.dtd">
<!-- Created with matplotlib (https://matplotlib.org/) -->
<svg height="345.6pt" version="1.1" viewBox="0 0 460.8 345.6" width="460.8pt" xmlns="http://www.w3.org/2000/svg" xmlns:xlink="http://www.w3.org/1999/xlink">
 <defs>
  <style type="text/css">
*{stroke-linecap:butt;stroke-linejoin:round;}
  </style>
 </defs>
 <g id="figure_1">
  <g id="patch_1">
   <path d="M 0 345.6 
L 460.8 345.6 
L 460.8 0 
L 0 0 
z
" style="fill:#ffffff;"/>
  </g>
  <g id="axes_1">
   <g id="patch_2">
    <path d="M 57.6 307.584 
L 414.72 307.584 
L 414.72 41.472 
L 57.6 41.472 
z
" style="fill:#ffffff;"/>
   </g>
   <g id="matplotlib.axis_1">
    <g id="xtick_1">
     <g id="line2d_1">
      <defs>
       <path d="M 0 0 
L 0 3.5 
" id="m3757700ea1" style="stroke:#000000;stroke-width:0.8;"/>
      </defs>
      <g>
       <use style="stroke:#000000;stroke-width:0.8;" x="73.800255" xlink:href="#m3757700ea1" y="307.584"/>
      </g>
     </g>
     <g id="text_1">
      <text style="font-family:DejaVu Sans;font-size:10px;font-style:normal;font-weight:normal;text-anchor:middle;" transform="rotate(-0, 73.800255, 322.182437)" x="73.800255" y="322.182437">0.0</text>
     </g>
    </g>
    <g id="xtick_2">
     <g id="line2d_2">
      <g>
       <use style="stroke:#000000;stroke-width:0.8;" x="138.744153" xlink:href="#m3757700ea1" y="307.584"/>
      </g>
     </g>
     <g id="text_2">
      <text style="font-family:DejaVu Sans;font-size:10px;font-style:normal;font-weight:normal;text-anchor:middle;" transform="rotate(-0, 138.744153, 322.182437)" x="138.744153" y="322.182437">0.2</text>
     </g>
    </g>
    <g id="xtick_3">
     <g id="line2d_3">
      <g>
       <use style="stroke:#000000;stroke-width:0.8;" x="203.688051" xlink:href="#m3757700ea1" y="307.584"/>
      </g>
     </g>
     <g id="text_3">
      <text style="font-family:DejaVu Sans;font-size:10px;font-style:normal;font-weight:normal;text-anchor:middle;" transform="rotate(-0, 203.688051, 322.182437)" x="203.688051" y="322.182437">0.4</text>
     </g>
    </g>
    <g id="xtick_4">
     <g id="line2d_4">
      <g>
       <use style="stroke:#000000;stroke-width:0.8;" x="268.631949" xlink:href="#m3757700ea1" y="307.584"/>
      </g>
     </g>
     <g id="text_4">
      <text style="font-family:DejaVu Sans;font-size:10px;font-style:normal;font-weight:normal;text-anchor:middle;" transform="rotate(-0, 268.631949, 322.182437)" x="268.631949" y="322.182437">0.6</text>
     </g>
    </g>
    <g id="xtick_5">
     <g id="line2d_5">
      <g>
       <use style="stroke:#000000;stroke-width:0.8;" x="333.575847" xlink:href="#m3757700ea1" y="307.584"/>
      </g>
     </g>
     <g id="text_5">
      <text style="font-family:DejaVu Sans;font-size:10px;font-style:normal;font-weight:normal;text-anchor:middle;" transform="rotate(-0, 333.575847, 322.182437)" x="333.575847" y="322.182437">0.8</text>
     </g>
    </g>
    <g id="xtick_6">
     <g id="line2d_6">
      <g>
       <use style="stroke:#000000;stroke-width:0.8;" x="398.519745" xlink:href="#m3757700ea1" y="307.584"/>
      </g>
     </g>
     <g id="text_6">
      <text style="font-family:DejaVu Sans;font-size:10px;font-style:normal;font-weight:normal;text-anchor:middle;" transform="rotate(-0, 398.519745, 322.182437)" x="398.519745" y="322.182437">1.0</text>
     </g>
    </g>
    <g id="text_7">
     <text style="font-family:DejaVu Sans;font-size:10px;font-style:normal;font-weight:normal;text-anchor:middle;" transform="rotate(-0, 236.16, 335.860562)" x="236.16" y="335.860562">Input Coin's Heads Probability (λ)</text>
    </g>
   </g>
   <g id="matplotlib.axis_2">
    <g id="ytick_1">
     <g id="line2d_7">
      <defs>
       <path d="M 0 0 
L -3.5 0 
" id="m9732166092" style="stroke:#000000;stroke-width:0.8;"/>
      </defs>
      <g>
       <use style="stroke:#000000;stroke-width:0.8;" x="57.6" xlink:href="#m9732166092" y="273.984"/>
      </g>
     </g>
     <g id="text_8">
      <text style="font-family:DejaVu Sans;font-size:10px;font-style:normal;font-weight:normal;text-anchor:end;" transform="rotate(-0, 50.6, 277.783219)" x="50.6" y="277.783219">0.14</text>
     </g>
    </g>
    <g id="ytick_2">
     <g id="line2d_8">
      <g>
       <use style="stroke:#000000;stroke-width:0.8;" x="57.6" xlink:href="#m9732166092" y="220.224"/>
      </g>
     </g>
     <g id="text_9">
      <text style="font-family:DejaVu Sans;font-size:10px;font-style:normal;font-weight:normal;text-anchor:end;" transform="rotate(-0, 50.6, 224.023219)" x="50.6" y="224.023219">0.16</text>
     </g>
    </g>
    <g id="ytick_3">
     <g id="line2d_9">
      <g>
       <use style="stroke:#000000;stroke-width:0.8;" x="57.6" xlink:href="#m9732166092" y="166.464"/>
      </g>
     </g>
     <g id="text_10">
      <text style="font-family:DejaVu Sans;font-size:10px;font-style:normal;font-weight:normal;text-anchor:end;" transform="rotate(-0, 50.6, 170.263219)" x="50.6" y="170.263219">0.18</text>
     </g>
    </g>
    <g id="ytick_4">
     <g id="line2d_10">
      <g>
       <use style="stroke:#000000;stroke-width:0.8;" x="57.6" xlink:href="#m9732166092" y="112.704"/>
      </g>
     </g>
     <g id="text_11">
      <text style="font-family:DejaVu Sans;font-size:10px;font-style:normal;font-weight:normal;text-anchor:end;" transform="rotate(-0, 50.6, 116.503219)" x="50.6" y="116.503219">0.20</text>
     </g>
    </g>
    <g id="ytick_5">
     <g id="line2d_11">
      <g>
       <use style="stroke:#000000;stroke-width:0.8;" x="57.6" xlink:href="#m9732166092" y="58.944"/>
      </g>
     </g>
     <g id="text_12">
      <text style="font-family:DejaVu Sans;font-size:10px;font-style:normal;font-weight:normal;text-anchor:end;" transform="rotate(-0, 50.6, 62.743219)" x="50.6" y="62.743219">0.22</text>
     </g>
    </g>
    <g id="text_13">
     <text style="font-family:DejaVu Sans;font-size:10px;font-style:normal;font-weight:normal;text-anchor:middle;" transform="rotate(-90, 22.254687, 174.528)" x="22.254687" y="174.528">Simulated Mean / Function Value</text>
    </g>
   </g>
   <g id="line2d_12">
    <path clip-path="url(#p203b4f1908)" d="M 73.832727 112.714752 
L 77.112066 113.798363 
L 80.391405 114.877615 
L 83.670744 115.952533 
L 86.950083 117.023144 
L 90.229421 118.089473 
L 93.50876 119.151547 
L 96.788099 120.20939 
L 100.067438 121.263028 
L 103.346777 122.312486 
L 106.626116 123.357788 
L 109.905455 124.398959 
L 113.184793 125.436025 
L 116.464132 126.469008 
L 119.743471 127.497933 
L 123.02281 128.522824 
L 126.302149 129.543705 
L 129.581488 130.560598 
L 132.860826 131.573528 
L 136.140165 132.582518 
L 139.419504 133.58759 
L 142.698843 134.588767 
L 145.978182 135.586071 
L 149.257521 136.579527 
L 152.53686 137.569154 
L 155.816198 138.554976 
L 159.095537 139.537015 
L 162.374876 140.515291 
L 165.654215 141.489828 
L 168.933554 142.460645 
L 172.212893 143.427765 
L 175.492231 144.391209 
L 178.77157 145.350997 
L 182.050909 146.30715 
L 185.330248 147.259689 
L 188.609587 148.208634 
L 191.888926 149.154006 
L 195.168264 150.095824 
L 198.447603 151.034109 
L 201.726942 151.968881 
L 205.006281 152.900159 
L 208.28562 153.827963 
L 211.564959 154.752312 
L 214.844298 155.673225 
L 218.123636 156.590722 
L 221.402975 157.504821 
L 224.682314 158.415542 
L 227.961653 159.322903 
L 231.240992 160.226923 
L 234.520331 161.127619 
L 237.799669 162.025011 
L 241.079008 162.919117 
L 244.358347 163.809954 
L 247.637686 164.69754 
L 250.917025 165.581894 
L 254.196364 166.463032 
L 257.475702 167.340973 
L 260.755041 168.215733 
L 264.03438 169.087331 
L 267.313719 169.955782 
L 270.593058 170.821105 
L 273.872397 171.683315 
L 277.151736 172.54243 
L 280.431074 173.398467 
L 283.710413 174.251441 
L 286.989752 175.101369 
L 290.269091 175.948268 
L 293.54843 176.792154 
L 296.827769 177.633043 
L 300.107107 178.47095 
L 303.386446 179.305892 
L 306.665785 180.137884 
L 309.945124 180.966942 
L 313.224463 181.793081 
L 316.503802 182.616317 
L 319.78314 183.436665 
L 323.062479 184.25414 
L 326.341818 185.068757 
L 329.621157 185.880532 
L 332.900496 186.689479 
L 336.179835 187.495612 
L 339.459174 188.298947 
L 342.738512 189.099498 
L 346.017851 189.897279 
L 349.29719 190.692305 
L 352.576529 191.48459 
L 355.855868 192.274149 
L 359.135207 193.060994 
L 362.414545 193.845141 
L 365.693884 194.626603 
L 368.973223 195.405394 
L 372.252562 196.181527 
L 375.531901 196.955016 
L 378.81124 197.725875 
L 382.090579 198.494117 
L 385.369917 199.259755 
L 388.649256 200.022803 
L 391.928595 200.783273 
L 395.207934 201.541179 
L 398.487273 202.296533 
" style="fill:none;stroke:#1f77b4;stroke-linecap:square;stroke-width:1.5;"/>
   </g>
   <g id="line2d_13">
    <path clip-path="url(#p203b4f1908)" d="M 73.832727 123.456 
L 77.112066 128.832 
L 80.391405 198.72 
L 83.670744 53.568 
L 86.950083 166.464 
L 90.229421 96.576 
L 93.50876 161.088 
L 96.788099 134.208 
L 100.067438 166.464 
L 103.346777 123.456 
L 106.626116 128.832 
L 109.905455 75.072 
L 113.184793 230.976 
L 116.464132 96.576 
L 119.743471 134.208 
L 123.02281 177.216 
L 126.302149 96.576 
L 129.581488 112.704 
L 132.860826 64.32 
L 136.140165 198.72 
L 139.419504 155.712 
L 142.698843 118.08 
L 145.978182 75.072 
L 149.257521 139.584 
L 152.53686 107.328 
L 155.816198 134.208 
L 159.095537 161.088 
L 162.374876 112.704 
L 165.654215 112.704 
L 168.933554 123.456 
L 172.212893 96.576 
L 175.492231 161.088 
L 178.77157 198.72 
L 182.050909 198.72 
L 185.330248 247.104 
L 188.609587 177.216 
L 191.888926 220.224 
L 195.168264 134.208 
L 198.447603 75.072 
L 201.726942 161.088 
L 205.006281 118.08 
L 208.28562 134.208 
L 211.564959 182.592 
L 214.844298 182.592 
L 218.123636 209.472 
L 221.402975 144.96 
L 224.682314 220.224 
L 227.961653 134.208 
L 231.240992 134.208 
L 234.520331 166.464 
L 237.799669 155.712 
L 241.079008 241.728 
L 244.358347 112.704 
L 247.637686 182.592 
L 250.917025 198.72 
L 254.196364 107.328 
L 257.475702 134.208 
L 260.755041 161.088 
L 264.03438 295.488 
L 267.313719 134.208 
L 270.593058 230.976 
L 273.872397 150.336 
L 277.151736 220.224 
L 280.431074 150.336 
L 283.710413 64.32 
L 286.989752 144.96 
L 290.269091 112.704 
L 293.54843 166.464 
L 296.827769 171.84 
L 300.107107 209.472 
L 303.386446 144.96 
L 306.665785 144.96 
L 309.945124 209.472 
L 313.224463 166.464 
L 316.503802 220.224 
L 319.78314 284.736 
L 323.062479 177.216 
L 326.341818 241.728 
L 329.621157 241.728 
L 332.900496 171.84 
L 336.179835 177.216 
L 339.459174 214.848 
L 342.738512 193.344 
L 346.017851 252.48 
L 349.29719 182.592 
L 352.576529 161.088 
L 355.855868 214.848 
L 359.135207 252.48 
L 362.414545 134.208 
L 365.693884 193.344 
L 368.973223 53.568 
L 372.252562 166.464 
L 375.531901 144.96 
L 378.81124 171.84 
L 382.090579 198.72 
L 385.369917 225.6 
L 388.649256 279.36 
L 391.928595 268.608 
L 395.207934 171.84 
L 398.487273 182.592 
" style="fill:none;stroke:#ff7f0e;stroke-linecap:square;stroke-width:1.5;"/>
   </g>
   <g id="patch_3">
    <path d="M 57.6 307.584 
L 57.6 41.472 
" style="fill:none;stroke:#000000;stroke-linecap:square;stroke-linejoin:miter;stroke-width:0.8;"/>
   </g>
   <g id="patch_4">
    <path d="M 414.72 307.584 
L 414.72 41.472 
" style="fill:none;stroke:#000000;stroke-linecap:square;stroke-linejoin:miter;stroke-width:0.8;"/>
   </g>
   <g id="patch_5">
    <path d="M 57.6 307.584 
L 414.72 307.584 
" style="fill:none;stroke:#000000;stroke-linecap:square;stroke-linejoin:miter;stroke-width:0.8;"/>
   </g>
   <g id="patch_6">
    <path d="M 57.6 41.472 
L 414.72 41.472 
" style="fill:none;stroke:#000000;stroke-linecap:square;stroke-linejoin:miter;stroke-width:0.8;"/>
   </g>
   <g id="text_14">
    <text style="font-family:DejaVu Sans;font-size:12px;font-style:normal;font-weight:normal;" transform="translate(121.313438 22.034625)">Simulated Mean for 1/(5+x) Algorithm</text>
    <text style="font-family:DejaVu Sans;font-size:12px;font-style:normal;font-weight:normal;" transform="translate(132.609375 35.472)">(Wasserstein Distances in Legend)</text>
   </g>
   <g id="legend_1">
    <g id="patch_7">
     <path d="M 64.6 302.584 
L 242.85 302.584 
Q 244.85 302.584 244.85 300.584 
L 244.85 272.22775 
Q 244.85 270.22775 242.85 270.22775 
L 64.6 270.22775 
Q 62.6 270.22775 62.6 272.22775 
L 62.6 300.584 
Q 62.6 302.584 64.6 302.584 
z
" style="fill:#ffffff;opacity:0.8;stroke:#cccccc;stroke-linejoin:miter;"/>
    </g>
    <g id="line2d_14">
     <path d="M 66.6 278.326187 
L 86.6 278.326187 
" style="fill:none;stroke:#1f77b4;stroke-linecap:square;stroke-width:1.5;"/>
    </g>
    <g id="line2d_15"/>
    <g id="text_15">
     <text style="font-family:DejaVu Sans;font-size:10px;font-style:normal;font-weight:normal;text-anchor:start;" transform="rotate(-0, 94.6, 281.826187)" x="94.6" y="281.826187">1/(5+x)</text>
    </g>
    <g id="line2d_16">
     <path d="M 66.6 293.004312 
L 86.6 293.004312 
" style="fill:none;stroke:#ff7f0e;stroke-linecap:square;stroke-width:1.5;"/>
    </g>
    <g id="line2d_17"/>
    <g id="text_16">
     <text style="font-family:DejaVu Sans;font-size:10px;font-style:normal;font-weight:normal;text-anchor:start;" transform="rotate(-0, 94.6, 296.504312)" x="94.6" y="296.504312">Simul. Mean (WD=0.007198)</text>
    </g>
   </g>
  </g>
 </g>
 <defs>
  <clipPath id="p203b4f1908">
   <rect height="266.112" width="357.12" x="57.6" y="41.472"/>
  </clipPath>
 </defs>
</svg>

<svg height="460.8" viewBox="0 0 460.8 345.6" width="614.4" xmlns="http://www.w3.org/2000/svg" xmlns:xlink="http://www.w3.org/1999/xlink"><defs><style>*{stroke-linecap:butt;stroke-linejoin:round}</style></defs><g id="figure_1"><path d="M0 345.6h460.8V0H0z" fill="#fff" id="patch_1"/><g id="axes_1"><path d="M57.6 307.584h357.12V41.472H57.6z" fill="#fff" id="patch_2"/><g id="matplotlib.axis_1"><g id="xtick_1"><g id="line2d_1"><defs><path d="M0 0v3.5" id="m3757700ea1" stroke="#000" stroke-width=".8"/></defs><use x="73.8" xlink:href="#m3757700ea1" y="307.584" stroke="#000" stroke-width=".8"/></g><text x="73.8" y="322.182" font-family="DejaVu Sans" font-size="10" font-weight="400" text-anchor="middle" id="text_1">0.0</text></g><g id="xtick_2"><use x="138.744" xlink:href="#m3757700ea1" y="307.584" stroke="#000" stroke-width=".8" id="line2d_2"/><text x="138.744" y="322.182" font-family="DejaVu Sans" font-size="10" font-weight="400" text-anchor="middle" id="text_2">0.2</text></g><g id="xtick_3"><use x="203.688" xlink:href="#m3757700ea1" y="307.584" stroke="#000" stroke-width=".8" id="line2d_3"/><text x="203.688" y="322.182" font-family="DejaVu Sans" font-size="10" font-weight="400" text-anchor="middle" id="text_3">0.4</text></g><g id="xtick_4"><use x="268.632" xlink:href="#m3757700ea1" y="307.584" stroke="#000" stroke-width=".8" id="line2d_4"/><text x="268.632" y="322.182" font-family="DejaVu Sans" font-size="10" font-weight="400" text-anchor="middle" id="text_4">0.6</text></g><g id="xtick_5"><use x="333.576" xlink:href="#m3757700ea1" y="307.584" stroke="#000" stroke-width=".8" id="line2d_5"/><text x="333.576" y="322.182" font-family="DejaVu Sans" font-size="10" font-weight="400" text-anchor="middle" id="text_5">0.8</text></g><g id="xtick_6"><use x="398.52" xlink:href="#m3757700ea1" y="307.584" stroke="#000" stroke-width=".8" id="line2d_6"/><text x="398.52" y="322.182" font-family="DejaVu Sans" font-size="10" font-weight="400" text-anchor="middle" id="text_6">1.0</text></g><text x="236.16" y="335.861" font-family="DejaVu Sans" font-size="10" font-weight="400" text-anchor="middle" id="text_7">Input Coin&apos;s Heads Probability (λ)</text></g><g id="matplotlib.axis_2"><g id="ytick_1"><g id="line2d_7"><defs><path d="M0 0h-3.5" id="m9732166092" stroke="#000" stroke-width=".8"/></defs><use x="57.6" xlink:href="#m9732166092" y="273.984" stroke="#000" stroke-width=".8"/></g><text x="50.6" y="277.783" font-family="DejaVu Sans" font-size="10" font-weight="400" text-anchor="end" id="text_8">0.14</text></g><g id="ytick_2"><use x="57.6" xlink:href="#m9732166092" y="220.224" stroke="#000" stroke-width=".8" id="line2d_8"/><text x="50.6" y="224.023" font-family="DejaVu Sans" font-size="10" font-weight="400" text-anchor="end" id="text_9">0.16</text></g><g id="ytick_3"><use x="57.6" xlink:href="#m9732166092" y="166.464" stroke="#000" stroke-width=".8" id="line2d_9"/><text x="50.6" y="170.263" font-family="DejaVu Sans" font-size="10" font-weight="400" text-anchor="end" id="text_10">0.18</text></g><g id="ytick_4"><use x="57.6" xlink:href="#m9732166092" y="112.704" stroke="#000" stroke-width=".8" id="line2d_10"/><text x="50.6" y="116.503" font-family="DejaVu Sans" font-size="10" font-weight="400" text-anchor="end" id="text_11">0.20</text></g><g id="ytick_5"><use x="57.6" xlink:href="#m9732166092" y="58.944" stroke="#000" stroke-width=".8" id="line2d_11"/><text x="50.6" y="62.743" font-family="DejaVu Sans" font-size="10" font-weight="400" text-anchor="end" id="text_12">0.22</text></g><text transform="rotate(-90 22.255 174.528)" x="22.255" y="174.528" font-family="DejaVu Sans" font-size="10" font-weight="400" text-anchor="middle" id="text_13">Simulated Mean / Function Value</text></g><path clip-path="url(#p203b4f1908)" d="M73.833 112.715l3.28 1.083 3.278 1.08 3.28 1.075 3.28 1.07 3.278 1.066 3.28 1.063 3.28 1.057 3.278 1.054 3.28 1.05 3.28 1.045 3.278 1.041 3.28 1.037 3.28 1.033 3.278 1.029 3.28 1.025 3.28 1.02 3.278 1.018 3.28 1.013 3.28 1.009 3.279 1.005 3.279 1 3.28.998 3.279.994 3.279.99 3.28.985 3.279.982 3.279.978 3.28.975 3.279.97 3.279.968 3.28.963 3.279.96 3.279.956 3.28.953 3.279.949 3.279.945 3.28.942 3.279.938 3.279.935 3.28.931 3.279.928 3.279.924 3.28.921 3.279.918 3.279.914 3.28.91 3.279.908 3.279.904 3.28.9 3.279.898 3.279.894 3.28.891 3.279.888 3.279.884 3.28.881 3.279.878 3.279.875 3.28.871 3.279.869 3.28.865 3.278.862 3.28.86 3.28.855 3.278.853 3.28.85 3.28.847 3.278.844 3.28.841 3.28.838 3.278.835 3.28.832 3.28.829 3.278.826 3.28.823 3.28.82 3.278.818 3.28.815 3.28.812 3.278.808 3.28.807 3.28.803 3.279.8 3.279.798 3.28.795 3.279.793 3.279.79 3.28.786 3.279.784 3.279.782 3.28.778 3.279.777 3.279.773 3.28.77 3.279.77 3.279.765 3.28.763 3.279.76 3.279.758 3.28.756" fill="none" stroke="#1f77b4" stroke-linecap="square" stroke-width="1.5" id="line2d_12"/><path clip-path="url(#p203b4f1908)" d="M73.833 123.456l3.28 5.376 3.278 69.888 3.28-145.152 3.28 112.896 3.278-69.888 3.28 64.512 3.28-26.88 3.278 32.256 3.28-43.008 3.28 5.376 3.278-53.76 3.28 155.904 3.28-134.4 3.278 37.632 3.28 43.008 3.28-80.64 3.278 16.128 3.28-48.384 3.28 134.4 3.279-43.008 3.279-37.632 3.28-43.008 3.279 64.512 3.279-32.256 3.28 26.88 3.279 26.88 3.279-48.384h3.28l3.279 10.752 3.279-26.88 3.28 64.512 3.279 37.632h3.279l3.28 48.384 3.279-69.888 3.279 43.008 3.28-86.016 3.279-59.136 3.279 86.016 3.28-43.008 3.279 16.128 3.279 48.384h3.28l3.279 26.88 3.279-64.512 3.28 75.264 3.279-86.016h3.279l3.28 32.256 3.279-10.752 3.279 86.016 3.28-129.024 3.279 69.888 3.279 16.128 3.28-91.392 3.279 26.88 3.279 26.88 3.28 134.4 3.279-161.28 3.28 96.768 3.278-80.64 3.28 69.888 3.28-69.888 3.278-86.016 3.28 80.64 3.28-32.256 3.278 53.76 3.28 5.376 3.28 37.632 3.278-64.512h3.28l3.28 64.512 3.278-43.008 3.28 53.76 3.28 64.512 3.278-107.52 3.28 64.512h3.28l3.278-69.888 3.28 5.376 3.28 37.632 3.279-21.504 3.279 59.136 3.28-69.888 3.279-21.504 3.279 53.76 3.28 37.632 3.279-118.272 3.279 59.136 3.28-139.776 3.279 112.896 3.279-21.504 3.28 26.88 3.279 26.88 3.279 26.88 3.28 53.76 3.279-10.752 3.279-96.768 3.28 10.752" fill="none" stroke="#ff7f0e" stroke-linecap="square" stroke-width="1.5" id="line2d_13"/><path d="M57.6 307.584V41.472" fill="none" stroke="#000" stroke-linecap="square" stroke-width=".8" id="patch_3"/><path d="M414.72 307.584V41.472" fill="none" stroke="#000" stroke-linecap="square" stroke-width=".8" id="patch_4"/><path d="M57.6 307.584h357.12" fill="none" stroke="#000" stroke-linecap="square" stroke-width=".8" id="patch_5"/><path d="M57.6 41.472h357.12" fill="none" stroke="#000" stroke-linecap="square" stroke-width=".8" id="patch_6"/><g id="text_14" font-family="DejaVu Sans" font-size="12" font-weight="400"><text transform="translate(121.313 22.035)">Simulated Mean for 1/(5+x) Algorithm</text><text transform="translate(132.61 35.472)">(Wasserstein Distances in Legend)</text></g><g id="legend_1"><path d="M64.6 302.584h178.25q2 0 2-2v-28.356q0-2-2-2H64.6q-2 0-2 2v28.356q0 2 2 2z" fill="#fff" opacity=".8" stroke="#ccc" id="patch_7"/><path d="M66.6 278.326h20" fill="none" stroke="#1f77b4" stroke-linecap="square" stroke-width="1.5" id="line2d_14"/><text x="94.6" y="281.826" font-family="DejaVu Sans" font-size="10" font-weight="400" id="text_15">1/(5+x)</text><path d="M66.6 293.004h20" fill="none" stroke="#ff7f0e" stroke-linecap="square" stroke-width="1.5" id="line2d_16"/><text x="94.6" y="296.504" font-family="DejaVu Sans" font-size="10" font-weight="400" id="text_16">Simul. Mean (WD=0.007198)</text></g></g></g><defs><clipPath id="p203b4f1908"><path d="M57.6 41.472h357.12v266.112H57.6z"/></clipPath></defs></svg>
